app/component-library/components/Icons/Icon/assets/search.svg

<svg width="24" height="24" viewBox="0 0 24 24" fill="none" xmlns="http://www.w3.org/2000/svg">
<path d="M21.0909 22C20.8182 22 20.6364 21.9091 20.4545 21.7273L18.6364 19.9091C18.2727 19.5455 18.2727 19 18.6364 18.6364C19 18.2727 19.5455 18.2727 19.9091 18.6364L21.7273 20.4545C22.0909 20.8182 22.0909 21.3636 21.7273 21.7273C21.5455 21.9091 21.3636 22 21.0909 22ZM11.5455 21.0909C6.27273 21.0909 2 16.8182 2 11.5455C2 6.27273 6.27273 2 11.5455 2C16.8182 2 21.0909 6.27273 21.0909 11.5455C21.0909 16.8182 16.8182 21.0909 11.5455 21.0909ZM11.5455 3.81818C7.27273 3.81818 3.81818 7.27273 3.81818 11.5455C3.81818 15.8182 7.27273 19.2727 11.5455 19.2727C15.8182 19.2727 19.2727 15.8182 19.2727 11.5455C19.2727 7.27273 15.8182 3.81818 11.5455 3.81818Z" fill="currentColor"/>
</svg>

<svg xmlns="http://www.w3.org/2000/svg" width="24" height="24" viewBox="0 0 24 24" fill="none"><path fill="currentColor" d="M21.09 22a.826.826 0 0 1-.636-.273l-1.818-1.818a.879.879 0 0 1 0-1.273.879.879 0 0 1 1.273 0l1.818 1.819a.879.879 0 0 1 0 1.272.825.825 0 0 1-.636.273Zm-9.544-.91A9.544 9.544 0 0 1 2 11.547 9.544 9.544 0 0 1 11.546 2a9.544 9.544 0 0 1 9.545 9.546 9.544 9.544 0 0 1-9.546 9.545Zm0-17.272a7.72 7.72 0 0 0-7.728 7.728 7.72 7.72 0 0 0 7.728 7.727 7.72 7.72 0 0 0 7.727-7.727 7.72 7.72 0 0 0-7.727-7.728Z"/></svg>
